src/modules/landing/assets/rich-text.svg

<svg width="24" height="18.67" viewBox="0 0 24 20" fill="#63666B" xmlns="http://www.w3.org/2000/svg">
<path d="M0 5.99984H8.00001V13.9998H0V5.99984ZM0 0.666504H24V3.33317H0V0.666504ZM24 5.99984V8.66651H10.6667V5.99984H24ZM24 11.3332V13.9998H10.6667V11.3332H24ZM0 16.6665H18.6667V19.3332H0V16.6665Z"/>
</svg>

<svg width="24" height="18.67" viewBox="0 0 24 20" fill="#63666B" xmlns="http://www.w3.org/2000/svg"><path d="M0 6h8v8H0V6zM0 .667h24v2.666H0V.667zM24 6v2.667H10.667V6H24zm0 5.333V14H10.667v-2.667H24zM0 16.666h18.667v2.667H0v-2.666z"/></svg>
